assets/svg/email.svg

<svg fill="none" height="24" viewBox="0 0 24 24" width="24" xmlns="http://www.w3.org/2000/svg"><path d="m2 8.8c0-1.68016 0-2.52024.32698-3.16197.28762-.56449.74656-1.02343 1.31105-1.31105.64173-.32698 1.48181-.32698 3.16197-.32698h10.4c1.6802 0 2.5202 0 3.162.32698.5645.28762 1.0234.74656 1.311 1.31105.327.64173.327 1.48181.327 3.16197v6.4c0 1.6802 0 2.5202-.327 3.162-.2876.5645-.7465 1.0234-1.311 1.311-.6418.327-1.4818.327-3.162.327h-10.4c-1.68016 0-2.52024 0-3.16197-.327-.56449-.2876-1.02343-.7465-1.31105-1.311-.32698-.6418-.32698-1.4818-.32698-3.162z" fill="#fff"/><path d="m21.5 18-6.6429-6m-5.71424 0-6.64283 6m-.50003-11 8.1649 5.7154c.6612.4629.9918.6943 1.3514.7839.3176.0792.6498.0792.9674 0 .3596-.0896.6902-.321 1.3514-.7839l8.1649-5.7154m-15.2 13h10.4c1.6802 0 2.5202 0 3.162-.327.5645-.2876 1.0234-.7465 1.311-1.311.327-.6418.327-1.4818.327-3.162v-6.4c0-1.68016 0-2.52024-.327-3.16197-.2876-.56449-.7465-1.02343-1.311-1.31105-.6418-.32698-1.4818-.32698-3.162-.32698h-10.4c-1.68016 0-2.52024 0-3.16197.32698-.56449.28762-1.02343.74656-1.31105 1.31105-.32698.64173-.32698 1.48181-.32698 3.16197v6.4c0 1.6802 0 2.5202.32698 3.162.28762.5645.74656 1.0234 1.31105 1.311.64173.327 1.48181.327 3.16197.327z" stroke="#516eb4" stroke-linecap="round" stroke-linejoin="round" stroke-width="2"/></svg>

<svg width="24" height="24" viewBox="0 0 24 24" fill="none" xmlns="http://www.w3.org/2000/svg">
<path d="M2 8.8C2 7.11984 2 6.27976 2.32698 5.63803C2.6146 5.07354 3.07354 4.6146 3.63803 4.32698C4.27976 4 5.11984 4 6.8 4H17.2C18.8802 4 19.7202 4 20.362 4.32698C20.9265 4.6146 21.3854 5.07354 21.673 5.63803C22 6.27976 22 7.11984 22 8.8V15.2C22 16.8802 22 17.7202 21.673 18.362C21.3854 18.9265 20.9265 19.3854 20.362 19.673C19.7202 20 18.8802 20 17.2 20H6.8C5.11984 20 4.27976 20 3.63803 19.673C3.07354 19.3854 2.6146 18.9265 2.32698 18.362C2 17.7202 2 16.8802 2 15.2V8.8Z" fill="white"/>
<path d="M21.5 18L14.8571 12M9.14286 12L2.50003 18M2 7L10.1649 12.7154C10.8261 13.1783 11.1567 13.4097 11.5163 13.4993C11.8339 13.5785 12.1661 13.5785 12.4837 13.4993C12.8433 13.4097 13.1739 13.1783 13.8351 12.7154L22 7M6.8 20H17.2C18.8802 20 19.7202 20 20.362 19.673C20.9265 19.3854 21.3854 18.9265 21.673 18.362C22 17.7202 22 16.8802 22 15.2V8.8C22 7.11984 22 6.27976 21.673 5.63803C21.3854 5.07354 20.9265 4.6146 20.362 4.32698C19.7202 4 18.8802 4 17.2 4H6.8C5.11984 4 4.27976 4 3.63803 4.32698C3.07354 4.6146 2.6146 5.07354 2.32698 5.63803C2 6.27976 2 7.11984 2 8.8V15.2C2 16.8802 2 17.7202 2.32698 18.362C2.6146 18.9265 3.07354 19.3854 3.63803 19.673C4.27976 20 5.11984 20 6.8 20Z" stroke="#516EB4" stroke-width="2" stroke-linecap="round" stroke-linejoin="round"/>
</svg>
